svg/icon/tnb.svg

<svg height="32" viewBox="0 0 32 32" width="32" xmlns="http://www.w3.org/2000/svg" xmlns:xlink="http://www.w3.org/1999/xlink"><defs><linearGradient id="a" x1="50%" x2="50%" y1="0%" y2="100%"><stop offset="0" stop-color="#fff" stop-opacity=".5"/><stop offset="1" stop-opacity=".5"/></linearGradient><circle id="b" cx="16" cy="15" r="15"/><filter id="c" height="111.7%" width="111.7%" x="-5.8%" y="-4.2%"><feOffset dy=".5" in="SourceAlpha" result="shadowOffsetOuter1"/><feGaussianBlur in="shadowOffsetOuter1" result="shadowBlurOuter1" stdDeviation=".5"/><feComposite in="shadowBlurOuter1" in2="SourceAlpha" operator="out" result="shadowBlurOuter1"/><feColorMatrix in="shadowBlurOuter1" values="0 0 0 0 0   0 0 0 0 0   0 0 0 0 0  0 0 0 0.199473505 0"/></filter><path id="d" d="m15.5977558 10.8571429h.0029043l-.0304951.1292857-.259934 1.2278571h-.0290429l-1.7135313 7.2857143h-2.1782179l1.7462047-7.2857143h-2.9318812l-1.64600662 7.2857143h-2.39603961l2.17821782-9h.65346535 1.59735976 5.0825082zm4.1415181-.3571429h3.6303631c3.1221122.1428571 2.8316831 2.2142857 2.8316831 2.2142857h.7986799l-.290429.8571429h-.7260727c-.2178217.7857143-1.6699669 1.2142857-1.6699669 1.2142857 1.6699669.2142857 1.5973597 1.5 1.5973597 1.5h.7986799l-.2178218.8571428h-.6534654c-.1669967 1.1907143-1.2219802 1.7678572-2.0889109 2.0435715-.5242822.1634616-1.0713463.2451652-1.6213201.2421428l-4.5669967.0000809zm-12.41584156 1.7142857h-2.32343234l.43564356-1.7142857h2.32343235zm9.94719476 6.2857143-1.8877888-4.4285714.7986799-3.4285715 1.8877887 4.2142858zm5.5544554-4.4285714c.2600238.0001897.509453-.1013435.6933176-.2822233s.2870733-.4262599.2868804-.6820624c.0001929-.2558026-.1030158-.5011827-.2868804-.6820625s-.4332938-.282413-.6933176-.2822233h-1.4158416l-.4356435 1.9285717zm-.4886469 3.7142857c.6505611 0 1.1784159-.4957143 1.1784159-1.1071429 0-.6114285-.5249505-1.1071428-1.1784159-1.1071428h-1.7026402l-.5234984 2.2142857z"/><filter id="e" height="138.9%" width="115.9%" x="-8%" y="-13.9%"><feOffset dy=".5" in="SourceAlpha" result="shadowOffsetOuter1"/><feGaussianBlur in="shadowOffsetOuter1" result="shadowBlurOuter1" stdDeviation=".5"/><feColorMatrix in="shadowBlurOuter1" values="0 0 0 0 0   0 0 0 0 0   0 0 0 0 0  0 0 0 0.204257246 0"/></filter></defs><g fill="none" fill-rule="evenodd"><use fill="#000" filter="url(#c)" xlink:href="#b"/><use fill="#ffc04e" xlink:href="#b"/><use fill="url(#a)" xlink:href="#b"/><circle cx="16" cy="15" r="14.5" stroke="#000" stroke-opacity=".097"/><g fill-rule="nonzero"><use fill="#000" filter="url(#e)" xlink:href="#d"/><use fill="#fff" fill-rule="evenodd" xlink:href="#d"/></g></g></svg>

<svg xmlns="http://www.w3.org/2000/svg" xmlns:xlink="http://www.w3.org/1999/xlink" width="32" height="32" viewBox="0 0 32 32">
  <defs>
    <linearGradient id="tnb-c" x1="50%" x2="50%" y1="0%" y2="100%">
      <stop offset="0%" stop-color="#FFF" stop-opacity=".5"/>
      <stop offset="100%" stop-opacity=".5"/>
    </linearGradient>
    <circle id="tnb-b" cx="16" cy="15" r="15"/>
    <filter id="tnb-a" width="111.7%" height="111.7%" x="-5.8%" y="-4.2%" filterUnits="objectBoundingBox">
      <feOffset dy=".5" in="SourceAlpha" result="shadowOffsetOuter1"/>
      <feGaussianBlur in="shadowOffsetOuter1" result="shadowBlurOuter1" stdDeviation=".5"/>
      <feComposite in="shadowBlurOuter1" in2="SourceAlpha" operator="out" result="shadowBlurOuter1"/>
      <feColorMatrix in="shadowBlurOuter1" values="0 0 0 0 0   0 0 0 0 0   0 0 0 0 0  0 0 0 0.199473505 0"/>
    </filter>
    <path id="tnb-e" d="M15.5977558,10.8571429 L15.6006601,10.8571429 L15.570165,10.9864286 L15.310231,12.2142857 L15.2811881,12.2142857 L13.5676568,19.5 L11.3894389,19.5 L13.1356436,12.2142857 L10.2037624,12.2142857 L8.55775578,19.5 L6.16171617,19.5 L8.33993399,10.5 L8.99339934,10.5 L10.5907591,10.5 L15.6732673,10.5 L15.5977558,10.8571429 Z M19.7392739,10.5 L23.369637,10.5 C26.4917492,10.6428571 26.2013201,12.7142857 26.2013201,12.7142857 L27,12.7142857 L26.709571,13.5714286 L25.9834983,13.5714286 C25.7656766,14.3571429 24.3135314,14.7857143 24.3135314,14.7857143 C25.9834983,15 25.9108911,16.2857143 25.9108911,16.2857143 L26.709571,16.2857143 L26.4917492,17.1428571 L25.8382838,17.1428571 C25.6712871,18.3335714 24.6163036,18.9107143 23.7493729,19.1864286 C23.2250907,19.3498902 22.6780266,19.4315938 22.1280528,19.4285714 L17.5610561,19.4286523 L19.7392739,10.5 Z M7.32343234,12.2142857 L5,12.2142857 L5.43564356,10.5 L7.75907591,10.5 L7.32343234,12.2142857 Z M17.2706271,18.5 L15.3828383,14.0714286 L16.1815182,10.6428571 L18.0693069,14.8571429 L17.2706271,18.5 Z M22.8250825,14.0714286 C23.0851063,14.0716183 23.3345355,13.9700851 23.5184001,13.7892053 C23.7022647,13.6083255 23.8054734,13.3629454 23.8052805,13.1071429 C23.8054734,12.8513403 23.7022647,12.6059602 23.5184001,12.4250804 C23.3345355,12.2442006 23.0851063,12.1426674 22.8250825,12.1428571 L21.4092409,12.1428571 L20.9735974,14.0714288 L22.8250825,14.0714286 Z M22.3364356,17.7857143 C22.9869967,17.7857143 23.5148515,17.29 23.5148515,16.6785714 C23.5148515,16.0671429 22.989901,15.5714286 22.3364356,15.5714286 L20.6337954,15.5714286 L20.110297,17.7857143 L22.3364356,17.7857143 Z"/>
    <filter id="tnb-d" width="115.9%" height="138.9%" x="-8%" y="-13.9%" filterUnits="objectBoundingBox">
      <feOffset dy=".5" in="SourceAlpha" result="shadowOffsetOuter1"/>
      <feGaussianBlur in="shadowOffsetOuter1" result="shadowBlurOuter1" stdDeviation=".5"/>
      <feColorMatrix in="shadowBlurOuter1" values="0 0 0 0 0   0 0 0 0 0   0 0 0 0 0  0 0 0 0.204257246 0"/>
    </filter>
  </defs>
  <g fill="none" fill-rule="evenodd">
    <use fill="#000" filter="url(#tnb-a)" xlink:href="#tnb-b"/>
    <use fill="#FFC04E" xlink:href="#tnb-b"/>
    <use fill="url(#tnb-c)" style="mix-blend-mode:soft-light" xlink:href="#tnb-b"/>
    <circle cx="16" cy="15" r="14.5" stroke="#000" stroke-opacity=".097"/>
    <g fill-rule="nonzero">
      <use fill="#000" filter="url(#tnb-d)" xlink:href="#tnb-e"/>
      <use fill="#FFF" fill-rule="evenodd" xlink:href="#tnb-e"/>
    </g>
  </g>
</svg>
